images/6604197.svg

<?xml version="1.0" encoding="UTF-8"?>
<svg xmlns="http://www.w3.org/2000/svg" xmlns:xlink="http://www.w3.org/1999/xlink" width="300pt" height="300pt" viewBox="0 0 300 300" version="1.1">
<defs>
<g>
<symbol overflow="visible" id="glyph0-0">
<path style="stroke:none;" d="M 0.453125 1.59375 L 0.453125 -6.34375 L 4.953125 -6.34375 L 4.953125 1.59375 Z M 0.953125 1.09375 L 4.453125 1.09375 L 4.453125 -5.84375 L 0.953125 -5.84375 Z M 0.953125 1.09375 "/>
</symbol>
<symbol overflow="visible" id="glyph0-1">
<path style="stroke:none;" d="M 3.546875 -5.953125 C 2.898438 -5.953125 2.382812 -5.710938 2 -5.234375 C 1.625 -4.753906 1.4375 -4.101562 1.4375 -3.28125 C 1.4375 -2.445312 1.625 -1.789062 2 -1.3125 C 2.382812 -0.832031 2.898438 -0.59375 3.546875 -0.59375 C 4.191406 -0.59375 4.703125 -0.832031 5.078125 -1.3125 C 5.453125 -1.789062 5.640625 -2.445312 5.640625 -3.28125 C 5.640625 -4.101562 5.453125 -4.753906 5.078125 -5.234375 C 4.703125 -5.710938 4.191406 -5.953125 3.546875 -5.953125 Z M 3.546875 -6.6875 C 4.460938 -6.6875 5.195312 -6.375 5.75 -5.75 C 6.300781 -5.132812 6.578125 -4.3125 6.578125 -3.28125 C 6.578125 -2.238281 6.300781 -1.410156 5.75 -0.796875 C 5.195312 -0.179688 4.460938 0.125 3.546875 0.125 C 2.617188 0.125 1.878906 -0.179688 1.328125 -0.796875 C 0.773438 -1.410156 0.5 -2.238281 0.5 -3.28125 C 0.5 -4.3125 0.773438 -5.132812 1.328125 -5.75 C 1.878906 -6.375 2.617188 -6.6875 3.546875 -6.6875 Z M 3.546875 -6.6875 "/>
</symbol>
<symbol overflow="visible" id="glyph0-2">
<path style="stroke:none;" d="M 0.890625 -6.5625 L 1.765625 -6.5625 L 1.765625 -3.875 L 5 -3.875 L 5 -6.5625 L 5.890625 -6.5625 L 5.890625 0 L 5 0 L 5 -3.125 L 1.765625 -3.125 L 1.765625 0 L 0.890625 0 Z M 0.890625 -6.5625 "/>
</symbol>
</g>
</defs>
<g id="surface53349">
<rect x="0" y="0" width="300" height="300" style="fill:rgb(100%,100%,100%);fill-opacity:1;stroke:none;"/>
<path style=" stroke:none;fill-rule:nonzero;fill:rgb(0%,0%,0%);fill-opacity:1;" d="M 119.371094 146.546875 L 107.074219 125.167969 L 100.5 130.671875 Z M 119.371094 146.546875 "/>
<path style="fill:none;stroke-width:1.2;stroke-linecap:butt;stroke-linejoin:miter;stroke:rgb(0%,0%,0%);stroke-opacity:1;stroke-miterlimit:10;" d="M 119.371094 146.546875 L 130.046875 124.730469 "/>
<path style="fill:none;stroke-width:1.2;stroke-linecap:butt;stroke-linejoin:miter;stroke:rgb(0%,0%,0%);stroke-opacity:1;stroke-miterlimit:10;" d="M 132.921875 166.699219 L 119.371094 146.546875 "/>
<path style="fill:none;stroke-width:1.2;stroke-linecap:butt;stroke-linejoin:miter;stroke:rgb(0%,0%,0%);stroke-opacity:1;stroke-miterlimit:10;" d="M 96.015625 153.207031 L 119.371094 146.546875 "/>
<path style="fill:none;stroke-width:1.2;stroke-linecap:butt;stroke-linejoin:miter;stroke:rgb(0%,0%,0%);stroke-opacity:1;stroke-miterlimit:10;" d="M 130.046875 124.730469 L 154.277344 123.070312 "/>
<path style="fill:none;stroke-width:1;stroke-linecap:butt;stroke-linejoin:miter;stroke:rgb(0%,0%,0%);stroke-opacity:1;stroke-miterlimit:10;" d="M 167.832031 143.226562 L 167.832031 143.226562 M 166.613281 140.480469 L 165.75 141.0625 M 165.398438 137.738281 L 163.667969 138.902344 M 164.183594 134.996094 L 161.585938 136.742188 M 162.964844 132.253906 L 159.503906 134.582031 M 161.75 129.511719 L 157.425781 132.421875 M 160.535156 126.769531 L 155.34375 130.261719 M 159.320312 124.027344 L 153.261719 128.101562 M 158.101562 121.285156 L 151.179688 125.941406 M 157.835938 120.679688 L 150.722656 125.464844 "/>
<path style="fill:none;stroke-width:1.2;stroke-linecap:butt;stroke-linejoin:miter;stroke:rgb(0%,0%,0%);stroke-opacity:1;stroke-miterlimit:10;" d="M 167.832031 143.226562 L 157.152344 165.039062 "/>
<path style="fill:none;stroke-width:1.2;stroke-linecap:butt;stroke-linejoin:miter;stroke:rgb(0%,0%,0%);stroke-opacity:1;stroke-miterlimit:10;" d="M 192.058594 141.5625 L 167.832031 143.226562 "/>
<path style="fill:none;stroke-width:1.2;stroke-linecap:butt;stroke-linejoin:miter;stroke:rgb(0%,0%,0%);stroke-opacity:1;stroke-miterlimit:10;" d="M 157.152344 165.039062 L 132.921875 166.699219 "/>
<path style=" stroke:none;fill-rule:nonzero;fill:rgb(0%,0%,0%);fill-opacity:1;" d="M 157.152344 165.039062 L 167.148438 187.582031 L 174.261719 182.800781 Z M 157.152344 165.039062 "/>
<path style=" stroke:none;fill-rule:nonzero;fill:rgb(0%,0%,0%);fill-opacity:1;" d="M 132.921875 166.699219 L 114.570312 183.171875 L 121.320312 188.460938 Z M 132.921875 166.699219 "/>
<path style="fill:none;stroke-width:1.2;stroke-linecap:butt;stroke-linejoin:miter;stroke:rgb(0%,0%,0%);stroke-opacity:1;stroke-miterlimit:10;" d="M 117.945312 185.816406 L 95.132812 177.480469 "/>
<path style="fill:none;stroke-width:1.2;stroke-linecap:butt;stroke-linejoin:miter;stroke:rgb(0%,0%,0%);stroke-opacity:1;stroke-miterlimit:10;" d="M 95.132812 177.480469 L 96.015625 153.207031 "/>
<path style=" stroke:none;fill-rule:nonzero;fill:rgb(0%,0%,0%);fill-opacity:1;" d="M 96.015625 153.207031 L 79.542969 134.855469 L 74.253906 141.601562 Z M 96.015625 153.207031 "/>
<path style="fill:none;stroke-width:1.2;stroke-linecap:butt;stroke-linejoin:miter;stroke:rgb(0%,0%,0%);stroke-opacity:1;stroke-miterlimit:10;" d="M 79.726562 138.628906 L 81.433594 126.609375 "/>
<path style="fill:none;stroke-width:1.2;stroke-linecap:butt;stroke-linejoin:miter;stroke:rgb(100%,0%,0%);stroke-opacity:1;stroke-miterlimit:10;" d="M 81.433594 126.609375 L 83.140625 114.585938 "/>
<path style="fill:none;stroke-width:1.2;stroke-linecap:butt;stroke-linejoin:miter;stroke:rgb(0%,0%,0%);stroke-opacity:1;stroke-miterlimit:10;" d="M 74.070312 137.828125 L 75.777344 125.804688 "/>
<path style="fill:none;stroke-width:1.2;stroke-linecap:butt;stroke-linejoin:miter;stroke:rgb(100%,0%,0%);stroke-opacity:1;stroke-miterlimit:10;" d="M 75.777344 125.804688 L 77.484375 113.78125 "/>
<path style="fill:none;stroke-width:1.2;stroke-linecap:butt;stroke-linejoin:miter;stroke:rgb(0%,0%,0%);stroke-opacity:1;stroke-miterlimit:10;" d="M 76.898438 138.230469 L 54.367188 147.296875 "/>
<path style=" stroke:none;fill-rule:nonzero;fill:rgb(100%,100%,100%);fill-opacity:1;" d="M 76.3125 108.683594 L 84.3125 108.683594 L 84.3125 119.683594 L 76.3125 119.683594 Z M 76.3125 108.683594 "/>
<g style="fill:rgb(100%,0%,0%);fill-opacity:1;">
  <use xlink:href="#glyph0-1" x="76.3125" y="117.34668"/>
</g>
<path style="fill:none;stroke-width:1.2;stroke-linecap:butt;stroke-linejoin:miter;stroke:rgb(0%,0%,0%);stroke-opacity:1;stroke-miterlimit:10;" d="M 54.367188 147.296875 L 44.808594 139.804688 "/>
<path style="fill:none;stroke-width:1.2;stroke-linecap:butt;stroke-linejoin:miter;stroke:rgb(100%,0%,0%);stroke-opacity:1;stroke-miterlimit:10;" d="M 44.808594 139.804688 L 35.25 132.316406 "/>
<path style=" stroke:none;fill-rule:nonzero;fill:rgb(100%,100%,100%);fill-opacity:1;" d="M 20.25 126.816406 L 35.25 126.816406 L 35.25 137.816406 L 20.25 137.816406 Z M 20.25 126.816406 "/>
<g style="fill:rgb(100%,0%,0%);fill-opacity:1;">
  <use xlink:href="#glyph0-2" x="20.25" y="135.479492"/>
  <use xlink:href="#glyph0-1" x="27.264648" y="135.479492"/>
</g>
<path style="fill:none;stroke-width:1.2;stroke-linecap:butt;stroke-linejoin:miter;stroke:rgb(0%,0%,0%);stroke-opacity:1;stroke-miterlimit:10;" d="M 170.707031 185.191406 L 194.9375 183.53125 "/>
<path style="fill:none;stroke-width:1.2;stroke-linecap:butt;stroke-linejoin:miter;stroke:rgb(0%,0%,0%);stroke-opacity:1;stroke-miterlimit:10;" d="M 194.9375 183.53125 L 205.613281 161.71875 "/>
<path style="fill:none;stroke-width:1.2;stroke-linecap:butt;stroke-linejoin:miter;stroke:rgb(0%,0%,0%);stroke-opacity:1;stroke-miterlimit:10;" d="M 205.613281 161.71875 L 229.84375 160.058594 "/>
<path style="fill:none;stroke-width:1.2;stroke-linecap:butt;stroke-linejoin:miter;stroke:rgb(0%,0%,0%);stroke-opacity:1;stroke-miterlimit:10;" d="M 207.644531 155.851562 L 227.03125 154.523438 "/>
<path style="fill:none;stroke-width:1.2;stroke-linecap:butt;stroke-linejoin:miter;stroke:rgb(0%,0%,0%);stroke-opacity:1;stroke-miterlimit:10;" d="M 192.058594 141.5625 L 205.613281 161.71875 "/>
<path style="fill:none;stroke-width:1.2;stroke-linecap:butt;stroke-linejoin:miter;stroke:rgb(0%,0%,0%);stroke-opacity:1;stroke-miterlimit:10;" d="M 229.84375 160.058594 L 240.519531 138.242188 "/>
<path style="fill:none;stroke-width:1.2;stroke-linecap:butt;stroke-linejoin:miter;stroke:rgb(0%,0%,0%);stroke-opacity:1;stroke-miterlimit:10;" d="M 240.714844 141.09375 L 252.832031 140.261719 "/>
<path style="fill:none;stroke-width:1.2;stroke-linecap:butt;stroke-linejoin:miter;stroke:rgb(100%,0%,0%);stroke-opacity:1;stroke-miterlimit:10;" d="M 252.832031 140.261719 L 264.945312 139.433594 "/>
<path style="fill:none;stroke-width:1.2;stroke-linecap:butt;stroke-linejoin:miter;stroke:rgb(0%,0%,0%);stroke-opacity:1;stroke-miterlimit:10;" d="M 240.324219 135.394531 L 252.441406 134.5625 "/>
<path style="fill:none;stroke-width:1.2;stroke-linecap:butt;stroke-linejoin:miter;stroke:rgb(100%,0%,0%);stroke-opacity:1;stroke-miterlimit:10;" d="M 252.441406 134.5625 L 264.554688 133.730469 "/>
<path style="fill:none;stroke-width:1.2;stroke-linecap:butt;stroke-linejoin:miter;stroke:rgb(0%,0%,0%);stroke-opacity:1;stroke-miterlimit:10;" d="M 240.519531 138.242188 L 226.96875 118.089844 "/>
<path style=" stroke:none;fill-rule:nonzero;fill:rgb(100%,100%,100%);fill-opacity:1;" d="M 260.75 131.082031 L 268.75 131.082031 L 268.75 142.082031 L 260.75 142.082031 Z M 260.75 131.082031 "/>
<g style="fill:rgb(100%,0%,0%);fill-opacity:1;">
  <use xlink:href="#glyph0-1" x="260.75" y="139.745117"/>
</g>
<path style="fill:none;stroke-width:1.2;stroke-linecap:butt;stroke-linejoin:miter;stroke:rgb(0%,0%,0%);stroke-opacity:1;stroke-miterlimit:10;" d="M 226.96875 118.089844 L 202.738281 119.75 "/>
<path style="fill:none;stroke-width:1.2;stroke-linecap:butt;stroke-linejoin:miter;stroke:rgb(0%,0%,0%);stroke-opacity:1;stroke-miterlimit:10;" d="M 202.738281 119.75 L 192.058594 141.5625 "/>
<path style=" stroke:none;fill-rule:nonzero;fill:rgb(0%,0%,0%);fill-opacity:1;" d="M 192.058594 141.5625 L 182.0625 119.019531 L 174.949219 123.800781 Z M 192.058594 141.5625 "/>
</g>
</svg>

<svg xmlns="http://www.w3.org/2000/svg" xmlns:xlink="http://www.w3.org/1999/xlink" width="300pt" height="300pt" viewBox="0 0 300 300"><defs><symbol overflow="visible"><path d="M.453 1.594v-7.938h4.5v7.938zm.5-.5h3.5v-6.938h-3.5zm0 0"/></symbol><symbol overflow="visible" id="a"><path d="M3.547-5.953c-.65 0-1.164.242-1.547.72-.375.48-.563 1.13-.563 1.952 0 .835.188 1.49.563 1.967.383.48.898.72 1.547.72.644 0 1.156-.24 1.53-.72.376-.476.564-1.132.564-1.968 0-.822-.187-1.474-.562-1.954-.375-.477-.887-.72-1.53-.72zm0-.734c.914 0 1.648.312 2.203.937.55.617.828 1.438.828 2.47 0 1.042-.277 1.87-.828 2.483-.555.617-1.29.922-2.203.922-.93 0-1.668-.305-2.22-.922C.774-1.41.5-2.237.5-3.28c0-1.033.273-1.853.828-2.47.55-.625 1.29-.938 2.22-.938zm0 0"/></symbol><symbol overflow="visible" id="b"><path d="M.89-6.563h.876v2.688H5v-2.688h.89V0H5v-3.125H1.766V0H.89zm0 0"/></symbol></defs><g><path fill="#fff" d="M0 0h300v300H0z"/><path d="M119.37 146.547l-12.296-21.38-6.574 5.505zm0 0"/><path d="M119.37 146.547l10.677-21.817M132.922 166.7l-13.55-20.153M96.016 153.207l23.355-6.66M130.047 124.73l24.23-1.66" stroke-width="1.2" stroke="#000" stroke-miterlimit="10" fill="none"/><path d="M167.832 143.227m-1.22-2.747l-.862.583m-.352-3.325l-1.73 1.164m.516-3.906l-2.598 1.746m1.38-4.488l-3.462 2.328m2.246-5.07l-4.324 2.91m3.11-5.652l-5.192 3.492m3.976-6.235l-6.058 4.075m4.84-6.817l-6.922 4.656m6.656-5.26l-7.113 4.785" stroke="#000" stroke-miterlimit="10" fill="none"/><path d="M167.832 143.227l-10.68 21.812M192.06 141.563l-24.228 1.664M157.152 165.04l-24.23 1.66" stroke-width="1.2" stroke="#000" stroke-miterlimit="10" fill="none"/><path d="M157.152 165.04l9.996 22.542 7.114-4.78zm0 0M132.922 166.7L114.57 183.17l6.75 5.29zm0 0"/><path d="M117.945 185.816l-22.812-8.336M95.133 177.48l.883-24.273" stroke-width="1.2" stroke="#000" stroke-miterlimit="10" fill="none"/><path d="M96.016 153.207l-16.473-18.352-5.29 6.747zm0 0"/><path d="M79.727 138.63l1.707-12.02" stroke-width="1.2" stroke="#000" stroke-miterlimit="10" fill="none"/><path d="M81.434 126.61l1.707-12.024" stroke-width="1.2" stroke="#f00" stroke-miterlimit="10" fill="none"/><path d="M74.07 137.828l1.707-12.023" stroke-width="1.2" stroke="#000" stroke-miterlimit="10" fill="none"/><path d="M75.777 125.805l1.707-12.024" stroke-width="1.2" stroke="#f00" stroke-miterlimit="10" fill="none"/><path d="M76.898 138.23l-22.53 9.067" stroke-width="1.2" stroke="#000" stroke-miterlimit="10" fill="none"/><path d="M76.313 108.684h8v11h-8zm0 0" fill="#fff"/><use xlink:href="#a" x="76.313" y="117.347" fill="#f00"/><path d="M54.367 147.297l-9.558-7.492" stroke-width="1.2" stroke="#000" stroke-miterlimit="10" fill="none"/><path d="M44.81 139.805l-9.56-7.49" stroke-width="1.2" stroke="#f00" stroke-miterlimit="10" fill="none"/><path d="M20.25 126.816h15v11h-15zm0 0" fill="#fff"/><g fill="#f00"><use xlink:href="#b" x="20.25" y="135.479"/><use xlink:href="#a" x="27.265" y="135.479"/></g><path d="M170.707 185.19l24.23-1.66M194.938 183.53l10.675-21.81M205.613 161.72l24.23-1.66M207.645 155.852l19.386-1.33M192.06 141.563l13.553 20.156M229.844 160.06l10.676-21.818M240.715 141.094l12.117-.832" stroke-width="1.2" stroke="#000" stroke-miterlimit="10" fill="none"/><path d="M252.832 140.262l12.113-.828" stroke-width="1.2" stroke="#f00" stroke-miterlimit="10" fill="none"/><path d="M240.324 135.395l12.117-.833" stroke-width="1.2" stroke="#000" stroke-miterlimit="10" fill="none"/><path d="M252.44 134.563l12.115-.833" stroke-width="1.2" stroke="#f00" stroke-miterlimit="10" fill="none"/><path d="M240.52 138.242l-13.55-20.152" stroke-width="1.2" stroke="#000" stroke-miterlimit="10" fill="none"/><path d="M260.75 131.082h8v11h-8zm0 0" fill="#fff"/><use xlink:href="#a" x="260.75" y="139.745" fill="#f00"/><path d="M226.97 118.09l-24.232 1.66M202.738 119.75l-10.68 21.813" stroke-width="1.2" stroke="#000" stroke-miterlimit="10" fill="none"/><path d="M192.06 141.563l-9.998-22.543-7.113 4.78zm0 0"/></g></svg>
